packages/foundations/assets/icons/functional/images/maps/navigation_straight_24.svg

<svg width="24" height="24" viewBox="0 0 24 24" fill="none" xmlns="http://www.w3.org/2000/svg">
<g clip-path="url(#clip0_2213_5364)">
<path fill-rule="evenodd" clip-rule="evenodd" d="M12 3C12.232 3 12.4972 3.0995 12.6962 3.2986L17.7017 8.3081C17.8674 8.4739 18 8.7393 18 9.0047C18 9.5687 17.536 10 17.0056 10C16.7404 10 16.4752 9.9005 16.2763 9.7014L13 6.422L13.0052 19.9997C13.0054 20.5519 12.5579 20.9998 12.0056 21C11.4533 21.0002 11.0054 20.5526 11.0052 20.0003L11 6.422L7.72375 9.7014C7.52484 9.90047 7.28173 10 6.99442 10C6.46404 10 6 9.5687 6 9.0047C6 8.7393 6.09942 8.4739 6.29827 8.3081L11.3807 3.21937C11.5454 3.0731 11.7727 3 12 3Z" fill="#1A1C1F"/>
</g>
<defs>
<clipPath id="clip0_2213_5364">
<rect width="24" height="24" fill="white"/>
</clipPath>
</defs>
</svg>

<svg xmlns="http://www.w3.org/2000/svg" width="24" height="24" fill="none"><g clip-path="url(#a)"><path fill="#1A1C1F" fill-rule="evenodd" d="M12 3c.232 0 .497.1.696.299l5.006 5.01c.165.165.298.43.298.696a1 1 0 0 1-.994.995c-.266 0-.53-.1-.73-.299L13 6.422 13.005 20a1 1 0 1 1-2 0L11 6.422l-3.276 3.28a1 1 0 0 1-.73.298A1 1 0 0 1 6 9.005c0-.266.1-.531.298-.697l5.083-5.089A.94.94 0 0 1 12 3" clip-rule="evenodd"/></g><defs><clipPath id="a"><path fill="#fff" d="M0 0h24v24H0z"/></clipPath></defs></svg>
